X:232
M:C|
L:1/8
K:G
dBGB d2cB|ABcd BcAB|B2E2E2:|
|:dc|B2G2G2dc|B2G2G2ed|c2A2A2 eg|a2A2A2dc|B2G2d2G2|
g2G2d2cB|ABcd BcAB|G2E2E2:|

